Paper/16x16/actions/tools-check-spelling.svg

<?xml version='1.0' encoding='UTF-8' standalone='no'?>
<svg height="16" xmlns:inkscape="http://www.inkscape.org/namespaces/inkscape" xmlns:sodipodi="http://sodipodi.sourceforge.net/DTD/sodipodi-0.dtd" version="1.1" width="16" xmlns="http://www.w3.org/2000/svg" enable-background="new">
 <metadata id="metadata90"/>
 <defs id="defs7386">
  <linearGradient id="linearGradient5606" osb:paint="solid">
   <stop id="stop5608"/>
  </linearGradient>
  <filter inkscape:collect="always" color-interpolation-filters="sRGB" id="filter7554">
   <feBlend inkscape:collect="always" id="feBlend7556" in2="BackgroundImage" mode="darken"/>
  </filter>
 </defs>
 <g inkscape:groupmode="layer" id="layer12" inkscape:label="actions" transform="translate(-586.0002,-41)">
  <path inkscape:connector-curvature="0" d="m 588,44 0,2 2.90625,0 C 590.85107,46 591,46.171037 591,46.09375 l 0,0.9375 -1,0 c -1.71588,0 -3.03787,1.10986 -3.0625,2.46875 -0.0123,0.679445 0.3195,1.353231 0.875,1.8125 0.5555,0.459269 1.30959,0.71875 2.1875,0.71875 l 2,0 1,0 0,-1 0,-4.9375 C 593,44.932958 592.11821,44.015991 590.9375,44 l -0.0312,0 L 588,44 z m 2,5.03125 1,0 0,1 -1,0 c -0.51941,0 -0.78011,-0.145714 -0.90625,-0.25 -0.12614,-0.104286 -0.15755,-0.178037 -0.15625,-0.25 0.003,-0.143925 0.0927,-0.5 1.0625,-0.5 z" id="path28099" color="#000000" stroke-width="2" fill="#000000" opacity="0.5"/>
  <path inkscape:connector-curvature="0" d="m 594,43 0,8.03125 0,1 1,0 2,0 c 0.93855,0 1.78249,-0.382302 2.3125,-0.96875 0.53001,-0.586448 0.75988,-1.33268 0.75,-2.0625 -0.01,-0.72982 -0.28566,-1.454073 -0.8125,-2.03125 C 598.72316,46.391573 597.92105,46 597,46 l -1,0 0,-3 -2,0 z m 2,5 1,0 c 0.42179,0 0.61965,0.135455 0.78125,0.3125 0.1616,0.177045 0.27751,0.44294 0.28125,0.71875 0.004,0.27581 -0.0984,0.519725 -0.25,0.6875 -0.15163,0.167775 -0.35374,0.3125 -0.8125,0.3125 l -1,0 L 596,48 z" id="path28101" color="#000000" stroke-width="2" fill="#000000" opacity="0.5"/>
  <path inkscape:connector-curvature="0" d="m 589,52.28125 -0.34375,0.375 -2,2 a 0.50005,0.50005 0 1 0 0.6875,0.6875 L 589,53.6875 l 1.65625,1.65625 0.34375,0.375 0.34375,-0.375 L 593,53.6875 l 1.65625,1.65625 0.34375,0.375 0.34375,-0.375 L 597,53.6875 l 1.65625,1.65625 0.34375,0.375 0.34375,-0.375 2,-2 a 0.50005,0.50005 0 1 0 -0.6875,-0.6875 L 599,54.3125 597.34375,52.65625 597,52.28125 596.65625,52.65625 595,54.3125 593.34375,52.65625 593,52.28125 592.65625,52.65625 591,54.3125 589.34375,52.65625 589,52.28125 z" id="path28103" color="#000000" fill="#000000" opacity="0.5"/>
 </g>
</svg>

<svg xmlns="http://www.w3.org/2000/svg" enable-background="new" viewBox="0 0 16 16"><defs><filter color-interpolation-filters="sRGB"><feBlend in2="BackgroundImage" mode="darken"/></filter></defs><g transform="translate(-586-41)" fill="#000" opacity="0.5" color="#000"><path d="m588 44v2h2.906c-.055 0 .094.171.094.094v.938h-1c-1.716 0-3.038 1.11-3.063 2.469-.012.679.319 1.353.875 1.813.556.459 1.31.719 2.188.719h2 1v-1-4.938c0-1.161-.882-2.078-2.063-2.094h-.031-2.906m2 5.03h1v1h-1c-.519 0-.78-.146-.906-.25-.126-.104-.158-.178-.156-.25.003-.144.093-.5 1.063-.5"/><path d="m594 43v8.03 1h1 2c.939 0 1.782-.382 2.313-.969.53-.586.76-1.333.75-2.063-.01-.73-.286-1.454-.813-2.031-.527-.577-1.329-.969-2.25-.969h-1v-3h-2m2 5h1c.422 0 .62.135.781.313.162.177.278.443.281.719.004.276-.098.52-.25.688-.152.168-.354.313-.813.313h-1v-2.031"/><path d="m589 52.28l-.344.375-2 2a.50005 .50005 0 1 0 .6875 .6875l1.656-1.656 1.656 1.656.344.375.344-.375 1.656-1.656 1.656 1.656.344.375.344-.375 1.656-1.656 1.656 1.656.344.375.344-.375 2-2a.50005 .50005 0 1 0 -.6875 -.6875l-1.656 1.656-1.656-1.656-.344-.375-.344.375-1.656 1.656-1.656-1.656-.344-.375-.344.375-1.656 1.656-1.656-1.656-.344-.375"/></g></svg>
